public/images/Union.svg

<svg xmlns="http://www.w3.org/2000/svg" width="354" height="234" viewBox="0 0 354 234" fill="none"><path fill-rule="evenodd" clip-rule="evenodd" d="M312.623 94.1774C315.611 82.2099 315.69 69.3378 312.271 56.5789C301.527 16.4821 260.313 -7.31306 220.216 3.43084C197.474 9.52458 179.976 25.4206 171.049 45.3553C155.55 35.8951 136.354 32.5546 117.429 37.6254C92.3686 44.3404 74.2698 64.0684 68.4549 87.5914C62.9307 87.6831 57.3285 88.4469 51.7499 89.9417C15.0742 99.7689 -6.69082 137.467 3.13641 174.143C12.9636 210.818 50.6617 232.583 87.3375 222.756C99.5105 219.494 110.041 213.162 118.319 204.816C135.12 221.693 160.235 229.362 184.888 222.756C198.705 219.054 210.405 211.397 219.097 201.328C236.198 226.396 267.851 239.178 298.822 230.879C338.016 220.377 361.275 180.091 350.773 140.897C345.108 119.754 330.776 103.248 312.623 94.1774Z" fill="white"></path></svg>

<svg xmlns="http://www.w3.org/2000/svg" width="354" height="234" fill="none" viewBox="0 0 354 234"><path fill="#fff" fill-rule="evenodd" d="M312.623 94.177c2.988-11.967 3.067-24.84-.352-37.598-10.744-40.097-51.958-63.892-92.055-53.148-22.742 6.094-40.24 21.99-49.167 41.924-15.499-9.46-34.695-12.8-53.62-7.73-25.06 6.715-43.16 26.443-48.974 49.966a69 69 0 0 0-16.705 2.35C15.074 99.77-6.69 137.468 3.136 174.144c9.828 36.675 47.526 58.44 84.202 48.613 12.173-3.262 22.703-9.594 30.981-17.94 16.801 16.877 41.916 24.546 66.569 17.94 13.817-3.702 25.517-11.359 34.209-21.428 17.101 25.068 48.754 37.85 79.725 29.551 39.194-10.502 62.453-50.788 51.951-89.982-5.665-21.143-19.997-37.649-38.15-46.72" clip-rule="evenodd"/></svg>
